spark-frontend/src/assets/icons/tablesSize.svg

<svg width="24" height="24" viewBox="0 0 24 24" fill="none" xmlns="http://www.w3.org/2000/svg">
    <path d="M0.5 4C0.5 2.067 2.067 0.5 4 0.5H20C21.933 0.5 23.5 2.067 23.5 4V20C23.5 21.933 21.933 23.5 20 23.5H4C2.067 23.5 0.5 21.933 0.5 20V4Z"
          stroke="#4B4B4B"/>
    <path d="M18 12L16.7161 11.9406L16.5825 9.05186L16.5725 7.81874L16.1813 7.42749L14.9481 7.41753L12.0594 7.28389L12 6L17.0072 6.23165L17.7684 6.99284L18 12Z"
          fill="white"/>
    <path d="M6 12L7.28389 12.0594L7.41753 14.9481L7.42749 16.1813L7.81874 16.5725L9.05186 16.5825L11.9406 16.7161L12 18L6.99284 17.7684L6.23165 17.0072L6 12Z"
          fill="white"/>
</svg>

<svg xmlns="http://www.w3.org/2000/svg" width="24" height="24" fill="none"><path stroke="#4B4B4B" d="M.5 4A3.5 3.5 0 0 1 4 .5h16A3.5 3.5 0 0 1 23.5 4v16a3.5 3.5 0 0 1-3.5 3.5H4A3.5 3.5 0 0 1 .5 20z"/><path fill="#fff" d="m18 12-1.284-.06-.134-2.888-.01-1.233-.39-.392-1.234-.01-2.889-.133L12 6l5.007.232.761.76zM6 12l1.284.06.134 2.888.01 1.233.39.392 1.234.01 2.889.133L12 18l-5.007-.232-.761-.76z"/></svg>
